!!!OTL: Sweet William and Lady Margaret
!! From: "Folk Songs of the Southern Appalachians;
!! As Sung by Jean Ritchie"  2nd Edition.
!! University of Kentucky Press, 1997.
**kern
*clefG2
*k[f#c#g#d#]
*E:
*M4/4
{4e
=1
4f#
8g#
8f#
4e
4c#
=2
4B
8c#
8e
4e}
{8e
8e
=3
4f#
(8g#
8f#)
4e
4c#
=4
2B}
4r
{4e
=5
4f#
8g#
8f#
4e
4c#
=6
4B
8c#
8e
4e
(8g#
8e)
=7
*M6/4
4f#
8g#
8f#
4e
8B
8c#
8e
8e
4c#
=8
*M4/4
2B}
4r
{8e
8e
=9
4f#
16f#
16f#
8g#
4b
4b
=10
8g#
8g#
8f#
8e
16e}
{16e
[8e
4e]
=11
4f#
8f#
8g#
4b
4b
=12
2f#}
4r
{8e
8f#
=13
4g#
(8g#
8f#)
4e}
{8c#
8c#
=14
4B
(8c#
8e)
4e
8g#
8e
=15
4f#
8g#
8f#
4e
4c#
=16
2B}
4r
{8e
8e
=17
4f#
(8g#
8f#)
4B
8c#
8e
=18
4B
(8c#
8e)
4e
8g#
8e
=19
4f#
8g#
8f#
4e
4c#
=20
2.B}
==
*-
